docs/themes/v2/source/images/design/info-icon.svg

<svg fill="none" height="14" viewBox="0 0 14 14" width="14" xmlns="http://www.w3.org/2000/svg"><path clip-rule="evenodd" d="m7 14c3.866 0 7-3.134 7-7 0-3.86599-3.134-7-7-7-3.86599 0-7 3.13401-7 7 0 3.866 3.13401 7 7 7zm.884-2.752v-5.892h-1.692v5.892zm-.132-8.448c-.2-.2-.44-.3-.72-.3s-.524.1-.732.3c-.2.2-.3.44-.3.72s.1.524.3.732c.208.2.452.3.732.3s.52-.1.72-.3c.208-.208.312-.452.312-.732s-.104-.52-.312-.72z" fill="#6d87f1" fill-rule="evenodd"/></svg>

<svg width="14" height="14" viewBox="0 0 14 14" fill="none" xmlns="http://www.w3.org/2000/svg">
<path fill-rule="evenodd" clip-rule="evenodd" d="M7 14C10.866 14 14 10.866 14 7C14 3.13401 10.866 0 7 0C3.13401 0 0 3.13401 0 7C0 10.866 3.13401 14 7 14ZM7.884 11.248V5.356H6.192V11.248H7.884ZM7.752 2.8C7.552 2.6 7.312 2.5 7.032 2.5C6.752 2.5 6.508 2.6 6.3 2.8C6.1 3 6 3.24 6 3.52C6 3.8 6.1 4.044 6.3 4.252C6.508 4.452 6.752 4.552 7.032 4.552C7.312 4.552 7.552 4.452 7.752 4.252C7.96 4.044 8.064 3.8 8.064 3.52C8.064 3.24 7.96 3 7.752 2.8Z" fill="#6D87F1"/>
</svg>
